icons/op-billing-information-24.svg

<svg width="24" height="24" viewBox="0 0 24 24" fill="none" xmlns="http://www.w3.org/2000/svg">
<path d="M17 5V4H16V5H14V4H13V5H11V4H10V5H8V4H7V5H4V20H20V5H17ZM18 18H6V7H7V8H8V7H10V8H11V7H13V8H14V7H16V8H17V7H18V18ZM11.5938 16.6875V15.8438C11 15.8125 10.4062 15.6562 10.0938 15.4688L10.3438 14.4062C10.7188 14.625 11.25 14.8125 11.8438 14.8125C12.3438 14.8125 12.7188 14.5938 12.7188 14.25C12.7188 13.9062 12.4062 13.6875 11.75 13.4688C10.7812 13.125 10.125 12.6875 10.125 11.8125C10.125 11.0312 10.6875 10.4062 11.6562 10.2188V9.34375H12.5312V10.1562C13.125 10.1875 13.5312 10.3125 13.8438 10.4375L13.5938 11.4688C13.3438 11.375 12.9375 11.1562 12.2812 11.1562C11.6875 11.1562 11.5 11.4062 11.5 11.6562C11.5 11.9688 11.8125 12.1562 12.5938 12.4375C13.6562 12.8125 14.0938 13.3125 14.0938 14.125C14.0938 14.9062 13.5312 15.5938 12.5 15.7812V16.6875H11.5938Z" fill="black"/>
</svg>

<svg xmlns="http://www.w3.org/2000/svg" width="24" height="24" viewBox="0 0 24 24"><path d="M17 5V4h-1v1h-2V4h-1v1h-2V4h-1v1H8V4H7v1H4v15h16V5h-3Zm1 13H6V7h1v1h1V7h2v1h1V7h2v1h1V7h2v1h1V7h1v11Zm-6.406-1.312v-.844c-.594-.032-1.188-.188-1.5-.375l.25-1.063c.375.219.906.406 1.5.406.5 0 .875-.218.875-.562 0-.344-.313-.562-.969-.781-.969-.344-1.625-.781-1.625-1.657 0-.781.563-1.406 1.531-1.593v-.875h.875v.812c.594.032 1 .156 1.313.282l-.25 1.031c-.25-.094-.656-.313-1.313-.313-.593 0-.781.25-.781.5 0 .313.312.5 1.094.782 1.062.374 1.5.874 1.5 1.687 0 .781-.563 1.469-1.594 1.656v.907h-.906Z"/></svg>
